X:78
T:Hilo, Boys, Hilo
M:C|
L:1/8
Q:1/4=3D110
K:Am
E2|\
A2B2 A2EE|A2BB A4  |A2B2(c2e2)|d2B4 e2|
d2c2 BBAA|G2A2 B2E2|A2B2 c2e2|d2c2 A2||
